src/svg/base/loader.svg

<svg xmlns="http://www.w3.org/2000/svg" xmlns:xlink="http://www.w3.org/1999/xlink" version="1.1" x="0px" y="0px" viewBox="0 0 50 50" enable-background="new 0 0 50 50" xml:space="preserve">
	<path fill="#414141" d="M27.8 9.9c0 0.7-0.6 1.2-1.4 1.2h-2.7c-0.8 0-1.4-0.5-1.4-1.2V1.2c0-0.7 0.6-1.2 1.4-1.2h2.7 c0.8 0 1.4 0.5 1.4 1.2V9.9z"/>
	<path fill="#D2D2D2" d="M27.8 48.8c0 0.7-0.6 1.2-1.4 1.2h-2.7c-0.8 0-1.4-0.5-1.4-1.2v-8.7c0-0.7 0.6-1.2 1.4-1.2h2.7 c0.8 0 1.4 0.5 1.4 1.2V48.8z"/>
	<path fill="#828282" d="M13.3 15c0.6 0.3 0.7 1.2 0.3 1.8l-1.3 2.3c-0.4 0.7-1.2 1-1.8 0.6L3 15.5c-0.6-0.3-0.7-1.2-0.3-1.8L4 11.4 c0.4-0.7 1.2-1 1.8-0.6L13.3 15z"/>
	<path fill="#D2D2D2" d="M47 34.5c0.6 0.3 0.7 1.2 0.3 1.8L46 38.6c-0.4 0.7-1.2 1-1.8 0.6L36.7 35c-0.6-0.3-0.7-1.2-0.3-1.8l1.3-2.3 c0.4-0.7 1.2-1 1.8-0.6L47 34.5z"/>
	<path fill="#646464" d="M19.8 10.5c0.3 0.6 0 1.4-0.6 1.8l-2.3 1.3c-0.7 0.4-1.5 0.3-1.8-0.3l-4.3-7.5c-0.3-0.6 0-1.4 0.6-1.8 l2.3-1.3c0.7-0.4 1.5-0.3 1.8 0.3L19.8 10.5z"/>
	<path fill="#D2D2D2" d="M39.3 44.2c0.3 0.6 0 1.4-0.6 1.8l-2.3 1.3c-0.7 0.4-1.5 0.3-1.8-0.3l-4.3-7.5c-0.3-0.6 0-1.4 0.6-1.8 l2.3-1.3c0.7-0.4 1.5-0.3 1.8 0.3L39.3 44.2z"/>
	<path fill="#BEBEBE" d="M10.5 30.2c0.6-0.3 1.4 0 1.8 0.6l1.3 2.3c0.4 0.7 0.3 1.5-0.3 1.8l-7.5 4.3c-0.6 0.3-1.4 0-1.8-0.6 l-1.3-2.3c-0.4-0.7-0.3-1.5 0.3-1.8L10.5 30.2z"/>
	<path fill="#D2D2D2" d="M44.2 10.7c0.6-0.3 1.4 0 1.8 0.6l1.3 2.3c0.4 0.7 0.3 1.5-0.3 1.8l-7.5 4.3c-0.6 0.3-1.4 0-1.8-0.6 l-1.3-2.3c-0.4-0.7-0.3-1.5 0.3-1.8L44.2 10.7z"/>
	<path fill="#D2D2D2" d="M15 36.7c0.3-0.6 1.2-0.7 1.8-0.3l2.3 1.3c0.7 0.4 1 1.2 0.6 1.8L15.5 47c-0.3 0.6-1.2 0.7-1.8 0.3L11.4 46 c-0.7-0.4-1-1.2-0.6-1.8L15 36.7z"/>
	<path fill="#D2D2D2" d="M34.5 3c0.3-0.6 1.2-0.7 1.8-0.3L38.6 4c0.7 0.4 1 1.2 0.6 1.8L35 13.3c-0.3 0.6-1.2 0.7-1.8 0.3l-2.3-1.3 c-0.7-0.4-1-1.2-0.6-1.8L34.5 3z"/>
	<path fill="#D2D2D2" d="M40.1 27.8c-0.7 0-1.2-0.6-1.2-1.4v-2.7c0-0.8 0.5-1.4 1.2-1.4h8.7c0.7 0 1.2 0.6 1.2 1.4v2.7 c0 0.8-0.5 1.4-1.2 1.4H40.1z"/>
	<path fill="#9F9F9F" d="M1.2 27.8c-0.7 0-1.2-0.6-1.2-1.4l0-2.7c0-0.8 0.5-1.4 1.2-1.4h8.7c0.7 0 1.2 0.6 1.2 1.4v2.7 c0 0.8-0.5 1.4-1.2 1.4H1.2z"/>
</svg>

<?xml version="1.0" encoding="UTF-8" standalone="no"?>
<svg width="50px" height="50px" viewBox="0 0 50 50" version="1.1" xmlns="http://www.w3.org/2000/svg" xmlns:xlink="http://www.w3.org/1999/xlink">
    <g stroke="none" stroke-width="1" fill-rule="evenodd">
        <path d="M1.2,27.8 C0.5,27.8 0,27.2 0,26.4 L0,23.7 C0,22.9 0.5,22.3 1.2,22.3 L9.9,22.3 C10.6,22.3 11.1,22.9 11.1,23.7 L11.1,26.4 C11.1,27.2 10.6,27.8 9.9,27.8 L1.2,27.8 L1.2,27.8 Z" fill-opacity="0.3"></path>
        <path d="M27.8,9.9 C27.8,10.6 27.2,11.1 26.4,11.1 L23.7,11.1 C22.9,11.1 22.3,10.6 22.3,9.9 L22.3,1.2 C22.3,0.5 22.9,0 23.7,0 L26.4,0 C27.2,0 27.8,0.5 27.8,1.2 L27.8,9.9 L27.8,9.9 Z"></path>
        <path d="M13.6,16.8 L12.3,19.1 C11.9,19.8 11.1,20.1 10.5,19.7 L3,15.5 C2.4,15.2 2.3,14.3 2.7,13.7 L4,11.4 C4.4,10.7 5.2,10.4 5.8,10.8 L13.3,15 C13.9,15.3 14,16.2 13.6,16.8 Z" fill-opacity="0.4"></path>
        <path d="M19.8,10.5 C20.1,11.1 19.8,11.9 19.2,12.3 L16.9,13.6 C16.2,14 15.4,13.9 15.1,13.3 L10.8,5.8 C10.5,5.2 10.8,4.4 11.4,4 L13.7,2.7 C14.4,2.3 15.2,2.4 15.5,3 L19.8,10.5 L19.8,10.5 Z" fill-opacity="0.6"></path>
        <path d="M10.5,30.2 C11.1,29.9 11.9,30.2 12.3,30.8 L13.6,33.1 C14,33.8 13.9,34.6 13.3,34.9 L5.8,39.2 C5.2,39.5 4.4,39.2 4,38.6 L2.7,36.3 C2.3,35.6 2.4,34.8 3,34.5 L10.5,30.2 L10.5,30.2 Z" fill-opacity="0.25"></path>
        <path d="M27.8,48.8 C27.8,49.5 27.2,50 26.4,50 L23.7,50 C22.9,50 22.3,49.5 22.3,48.8 L22.3,40.1 C22.3,39.4 22.9,38.9 23.7,38.9 L26.4,38.9 C27.2,38.9 27.8,39.4 27.8,40.1 L27.8,48.8 L27.8,48.8 Z" fill-opacity="0.2"></path>
        <path d="M47,34.5 C47.6,34.8 47.7,35.7 47.3,36.3 L46,38.6 C45.6,39.3 44.8,39.6 44.2,39.2 L36.7,35 C36.1,34.7 36,33.8 36.4,33.2 L37.7,30.9 C38.1,30.2 38.9,29.9 39.5,30.3 L47,34.5 L47,34.5 Z" fill-opacity="0.2"></path>
        <path d="M38.7,46 L36.4,47.3 C35.7,47.7 34.9,47.6 34.6,47 L30.3,39.5 C30,38.9 30.3,38.1 30.9,37.7 L33.2,36.4 C33.9,36 34.7,36.1 35,36.7 L39.3,44.2 C39.6,44.8 39.3,45.6 38.7,46 Z" fill-opacity="0.2"></path>
        <path d="M15,36.7 C15.3,36.1 16.2,36 16.8,36.4 L19.1,37.7 C19.8,38.1 20.1,38.9 19.7,39.5 L15.5,47 C15.2,47.6 14.3,47.7 13.7,47.3 L11.4,46 C10.7,45.6 10.4,44.8 10.8,44.2 L15,36.7 L15,36.7 Z" fill-opacity="0.2"></path>
        <path d="M40.1,27.8 C39.4,27.8 38.9,27.2 38.9,26.4 L38.9,23.7 C38.9,22.9 39.4,22.3 40.1,22.3 L48.8,22.3 C49.5,22.3 50,22.9 50,23.7 L50,26.4 C50,27.2 49.5,27.8 48.8,27.8 L40.1,27.8 L40.1,27.8 Z" fill-opacity="0.2"></path>
        <path d="M46,11.3 L47.3,13.6 C47.7,14.3 47.6,15.1 47,15.4 L39.5,19.7 C38.9,20 38.1,19.7 37.7,19.1 L36.4,16.8 C36,16.1 36.1,15.3 36.7,15 L44.2,10.7 C44.8,10.4 45.6,10.7 46,11.3 Z" fill-opacity="0.2"></path>
        <path d="M36.3,2.7 L38.6,4 C39.3,4.4 39.6,5.2 39.2,5.8 L35,13.3 C34.7,13.9 33.8,14 33.2,13.6 L30.9,12.3 C30.2,11.9 29.9,11.1 30.3,10.5 L34.5,3 C34.8,2.4 35.7,2.3 36.3,2.7 Z" fill-opacity="0.2"></path>
    </g>
</svg>
